;FLAVOR:Marlin
;TIME:4111
;Filament used: 2.76966m
;Layer height: 0.2
;MINX:70.065
;MINY:63
;MINZ:0.2
;MAXX:126.567
;MAXY:129.988
;MAXZ:2.9
;TARGET_MACHINE.NAME:Anet A8
;Generated with Cura_SteamEngine 5.6.0
M140 S60
M105
M190 S60
M104 S205
M105
M109 S205
M82 ;absolute extrusion mode
G28 ;Home
G1 Z15.0 F2000 ;Move the platform
G92 E0
G92 E0
G1 F1500 E-6.5
;LAYER_COUNT:14
;LAYER:0
M107
M204 S1000
G0 F7500 X75.643 Y64.597 Z0.3
;TYPE:SKIRT
G1 F1500 E0
G1 X76.08 Y64.188 E0.02986
G1 X76.599 Y63.78 E0.0628
G1 X77.076 Y63.468 E0.09123
G1 X77.594 Y63.237 E0.11953
G1 X78.147 Y63.088 E0.1481
G1 X78.726 Y63.028 E0.17714
G1 X80.098 Y63 E0.24561
G1 X121.475 Y63.001 E2.30991
G1 X122.247 Y63.019 E2.34844
G1 X122.678 Y63.052 E2.37001
G1 X123.27 Y63.15 E2.39994
G1 X123.819 Y63.334 E2.42883
G1 X124.4 Y63.649 E2.4618
G1 X124.764 Y63.896 E2.48375
G1 X125.331 Y64.362 E2.52036
G1 X125.775 Y64.872 E2.5541
G1 X126.046 Y65.299 E2.57933
G1 X126.296 Y65.88 E2.61089
G1 X126.432 Y66.431 E2.6392
G1 X126.51 Y66.91 E2.66341
G1 X126.555 Y67.367 E2.68632
G1 X126.566 Y67.753 E2.70559
G1 X126.567 Y124.805 E5.55192
G1 X126.556 Y125.563 E5.58975
G1 X126.518 Y126.009 E5.61208
G1 X126.432 Y126.558 E5.6398
G1 X126.296 Y127.109 E5.66812
G1 X126.075 Y127.634 E5.69653
G1 X125.773 Y128.118 E5.725
G1 X125.312 Y128.643 E5.75985
G1 X124.843 Y129.035 E5.79035
G1 X124.448 Y129.314 E5.81447
G1 X123.957 Y129.602 E5.84287
G1 X123.487 Y129.789 E5.86811
G1 X122.878 Y129.927 E5.89926
G1 X122.47 Y129.959 E5.91968
G1 X121.087 Y129.988 E5.98869
G1 X79.719 Y129.987 E8.05255
G1 X78.923 Y129.969 E8.09228
G1 X78.519 Y129.938 E8.11249
G1 X77.988 Y129.855 E8.1393
G1 X77.408 Y129.672 E8.16965
G1 X76.679 Y129.261 E8.2114
G1 X76.175 Y128.893 E8.24253
G1 X75.791 Y128.564 E8.26776
G1 X75.382 Y128.083 E8.29926
G1 X75.086 Y127.587 E8.32808
G1 X74.851 Y126.972 E8.36092
G1 X74.697 Y126.398 E8.39057
G1 X74.6 Y125.865 E8.4176
G1 X74.42 Y124.113 E8.50547
G1 X74.083 Y121.343 E8.64468
G1 X73.687 Y118.706 E8.77772
G1 X73.196 Y115.974 E8.9162
G1 X72.641 Y113.312 E9.05187
G1 X72.008 Y110.661 E9.18784
G1 X71.308 Y108.056 E9.32242
G1 X70.258 Y104.596 E9.50281
G1 X70.126 Y104.022 E9.5322
G1 X70.09 Y103.602 E9.55323
G1 X70.066 Y102.424 E9.61201
G1 X70.065 Y90.18 E10.22286
G1 X70.075 Y89.473 E10.25814
G1 X70.133 Y88.88 E10.28787
G1 X70.231 Y88.478 E10.30851
G1 X70.761 Y86.774 E10.39754
G1 X71.539 Y84.087 E10.5371
G1 X72.217 Y81.474 E10.67178
G1 X72.828 Y78.81 E10.80814
G1 X73.368 Y76.105 E10.94576
G1 X73.821 Y73.453 E11.07998
G1 X74.2 Y70.772 E11.21507
G1 X74.503 Y68.095 E11.34947
G1 X74.6 Y67.13 E11.39786
G1 X74.686 Y66.644 E11.42248
G1 X74.831 Y66.084 E11.45134
G1 X75.021 Y65.549 E11.47967
G1 X75.293 Y65.05 E11.50802
G1 X75.643 Y64.597 E11.53658
G0 F7500 X75.917 Y64.888
G1 F1500 X76.327 Y64.502 E11.56468
G1 X76.821 Y64.113 E11.59605
G1 X77.242 Y63.832 E11.6213
G1 X77.702 Y63.622 E11.64653
G1 X78.189 Y63.486 E11.67175
G1 X78.734 Y63.428 E11.6991
G1 X80.098 Y63.4 E11.76716
G1 X121.466 Y63.401 E13.83102
G1 X122.216 Y63.418 E13.86845
G1 X122.647 Y63.451 E13.89001
G1 X123.147 Y63.53 E13.91527
G1 X123.628 Y63.686 E13.94049
G1 X124.209 Y64.001 E13.97347
G1 X124.538 Y64.226 E13.99335
G1 X125.031 Y64.627 E14.02506
G1 X125.437 Y65.086 E14.05563
G1 X125.708 Y65.513 E14.08086
G1 X125.908 Y65.977 E14.10607
G1 X126.037 Y66.495 E14.1327
G1 X126.115 Y66.974 E14.15691
G1 X126.155 Y67.379 E14.17722
G1 X126.166 Y67.753 E14.19588
G1 X126.167 Y124.8 E17.04197
G1 X126.157 Y125.529 E17.07834
G1 X126.119 Y125.975 E17.10068
G1 X126.043 Y126.465 E17.12541
G1 X125.926 Y126.957 E17.15064
G1 X125.734 Y127.425 E17.17588
G1 X125.47 Y127.856 E17.2011
G1 X125.055 Y128.336 E17.23275
G1 X124.586 Y128.728 E17.26325
G1 X124.243 Y128.971 E17.28422
G1 X123.809 Y129.23 E17.30944
G1 X123.339 Y129.417 E17.33467
G1 X122.846 Y129.528 E17.35988
G1 X122.462 Y129.559 E17.3791
G1 X121.087 Y129.588 E17.44772
G1 X79.728 Y129.587 E19.51113
G1 X78.954 Y129.57 E19.54975
G1 X78.55 Y129.539 E19.56997
G1 X78.051 Y129.46 E19.59517
G1 X77.57 Y129.304 E19.6204
G1 X76.914 Y128.937 E19.6579
G1 X76.435 Y128.589 E19.68744
G1 X76.051 Y128.26 E19.71267
G1 X75.723 Y127.875 E19.7379
G1 X75.46 Y127.444 E19.76309
G1 X75.225 Y126.829 E19.79594
G1 X75.09 Y126.326 E19.82192
G1 X74.998 Y125.824 E19.84738
G1 X74.818 Y124.072 E19.93525
G1 X74.479 Y121.284 E20.07537
G1 X74.083 Y118.647 E20.2084
G1 X73.59 Y115.903 E20.34749
G1 X73.033 Y113.23 E20.48371
G1 X72.397 Y110.568 E20.62026
G1 X71.691 Y107.94 E20.75602
G1 X70.641 Y104.48 E20.93641
G1 X70.525 Y103.988 E20.96163
G1 X70.489 Y103.568 E20.98266
G1 X70.466 Y102.424 E21.03975
G1 X70.465 Y90.186 E21.65031
G1 X70.475 Y89.479 E21.68558
G1 X70.522 Y88.975 E21.71084
G1 X70.62 Y88.573 E21.73148
G1 X71.143 Y86.893 E21.81926
G1 X71.923 Y84.198 E21.95923
G1 X72.604 Y81.575 E22.09443
G1 X73.218 Y78.899 E22.23141
G1 X73.76 Y76.183 E22.36958
G1 X74.215 Y73.52 E22.50437
G1 X74.596 Y70.828 E22.64001
G1 X74.901 Y68.135 E22.77522
G1 X74.994 Y67.2 E22.8221
G1 X75.08 Y66.714 E22.84672
G1 X75.209 Y66.215 E22.87244
G1 X75.374 Y65.737 E22.89767
G1 X75.612 Y65.291 E22.92289
G1 X75.917 Y64.888 E22.9481
G1 F1500 E16.4481
G0 F7500 X81.618 Y70.66
G1 F1500 E22.9481
G1 X82.229 Y70.049 E22.99121
G1 X83.063 Y69.826 E23.03428
G1 X83.895 Y70.049 E23.07725
G1 X84.506 Y70.661 E23.1204
G1 X84.731 Y71.494 E23.16345
G1 X84.506 Y72.329 E23.20659
G1 X83.898 Y72.937 E23.24949
G1 X83.063 Y73.162 E23.29263
G1 X82.23 Y72.937 E23.33568
G1 X81.618 Y72.326 E23.37883
G1 X81.395 Y71.494 E23.4218
G1 X81.618 Y70.66 E23.46487
G0 F7500 X81.978 Y70.866
G1 F1500 X82.435 Y70.409 E23.49711
G1 X83.063 Y70.241 E23.52955
G1 X83.688 Y70.408 E23.56182
G1 X84.148 Y70.869 E23.59431
G1 X84.317 Y71.494 E23.62661
G1 X84.148 Y72.121 E23.65901
G1 X83.69 Y72.579 E23.69133
G1 X83.063 Y72.748 E23.72372
G1 X82.438 Y72.579 E23.75602
G1 X81.977 Y72.119 E23.78851
G1 X81.81 Y71.494 E23.82079
G1 X81.978 Y70.866 E23.85322
G0 F7500 X82.336 Y71.074
G1 F1500 X82.643 Y70.767 E23.87488
G1 X83.063 Y70.654 E23.89658
G1 X83.48 Y70.766 E23.91812
G1 X83.79 Y71.077 E23.94003
G1 X83.903 Y71.494 E23.96159
G1 X83.79 Y71.913 E23.98324
G1 X83.482 Y72.221 E24.00497
G1 X83.064 Y72.334 E24.02657
G1 X82.646 Y72.221 E24.04817
G1 X82.335 Y71.911 E24.07008
G1 X82.223 Y71.494 E24.09162
G1 X82.336 Y71.074 E24.11332
G1 F1500 E17.61332
G0 F7500 X77.649 Y86.986
G1 F1500 E24.11332
G1 X77.649 Y87.913 E24.15957
G1 X77.385 Y87.957 E24.17292
G1 X77.282 Y87.867 E24.17975
G1 X76.946 Y87.76 E24.19734
G1 X77.215 Y87.376 E24.22073
G1 X77.235 Y87.341 E24.22274
G1 X77.41 Y86.936 E24.24475
G1 X77.649 Y86.986 E24.25693
G1 F1500 E17.75693
G0 F7500 X81.618 Y85.326
G1 F1500 E24.25693
G1 X81.395 Y84.494 E24.29991
G1 X81.618 Y83.66 E24.34298
G1 X82.229 Y83.049 E24.38609
G1 X83.063 Y82.826 E24.42916
G1 X83.895 Y83.049 E24.47213
G1 X84.506 Y83.661 E24.51528
G1 X84.731 Y84.494 E24.55832
G1 X84.506 Y85.329 E24.60147
G1 X83.898 Y85.937 E24.64437
G1 X83.063 Y86.162 E24.68751
G1 X82.23 Y85.937 E24.73056
G1 X81.618 Y85.326 E24.7737
G0 F7500 X81.977 Y85.119
G1 F1500 X81.81 Y84.494 E24.80598
G1 X81.978 Y83.866 E24.83841
G1 X82.435 Y83.409 E24.87065
G1 X83.063 Y83.241 E24.90309
G1 X83.688 Y83.408 E24.93536
G1 X84.148 Y83.869 E24.96785
G1 X84.317 Y84.494 E25.00015
G1 X84.148 Y85.121 E25.03255
G1 X83.69 Y85.579 E25.06487
G1 X83.063 Y85.748 E25.09726
G1 X82.438 Y85.579 E25.12956
G1 X81.977 Y85.119 E25.16206
G0 F7500 X82.335 Y84.911
G1 F1500 X82.223 Y84.494 E25.1836
G1 X82.336 Y84.074 E25.2053
G1 X82.643 Y83.767 E25.22696
G1 X83.063 Y83.654 E25.24866
G1 X83.48 Y83.766 E25.2702
G1 X83.79 Y84.077 E25.2921
G1 X83.903 Y84.494 E25.31366
G1 X83.79 Y84.913 E25.33531
G1 X83.482 Y85.221 E25.35704
G1 X83.064 Y85.334 E25.37864
G1 X82.646 Y85.221 E25.40025
G1 X82.335 Y84.911 E25.42215
G1 F1500 E18.92215
G0 F7500 X77.458 Y104.963
G1 F1500 E25.42215
G1 X77.62 Y105.102 E25.4328
G1 X77.649 Y105.17 E25.43649
G1 X77.649 Y106.003 E25.47805
G1 X77.394 Y106.041 E25.49091
G1 X77.339 Y105.865 E25.50011
G1 X77.324 Y105.829 E25.50206
G1 X77.132 Y105.476 E25.52211
G1 X77.109 Y105.443 E25.52411
G1 X76.776 Y105.05 E25.54981
G1 X77.204 Y104.903 E25.57239
G1 X77.458 Y104.963 E25.58541
G1 F1500 E19.08541
G0 F7500 X81.617 Y107.659
G1 F1500 E25.58541
G1 X82.228 Y107.048 E25.62852
G1 X83.063 Y106.825 E25.67164
G1 X83.896 Y107.048 E25.71466
G1 X84.508 Y107.661 E25.75787
G1 X84.731 Y108.494 E25.8009
G1 X84.508 Y109.329 E25.84401
G1 X83.898 Y109.939 E25.88705
G1 X83.063 Y110.162 E25.93017
G1 X82.23 Y109.939 E25.97319
G1 X81.617 Y109.327 E26.01641
G1 X81.394 Y108.494 E26.05943
G1 X81.617 Y107.659 E26.10255
G0 F7500 X81.977 Y107.865
G1 F1500 X82.434 Y107.408 E26.13479
G1 X83.063 Y107.239 E26.16729
G1 X83.689 Y107.407 E26.19962
G1 X84.149 Y107.867 E26.23208
G1 X84.317 Y108.494 E26.26446
G1 X84.148 Y109.123 E26.29696
G1 X83.692 Y109.579 E26.32913
G1 X83.063 Y109.748 E26.36162
G1 X82.436 Y109.58 E26.39401
G1 X81.976 Y109.12 E26.42646
G1 X81.808 Y108.494 E26.4588
G1 X81.977 Y107.865 E26.49129
G0 F7500 X82.335 Y108.073
G1 F1500 X82.642 Y107.766 E26.51296
G1 X83.062 Y107.653 E26.53465
G1 X83.481 Y107.765 E26.55629
G1 X83.79 Y108.075 E26.57813
G1 X83.903 Y108.494 E26.59978
G1 X83.79 Y108.915 E26.62153
G1 X83.484 Y109.221 E26.64312
G1 X83.064 Y109.334 E26.66482
G1 X82.644 Y109.221 E26.68652
G1 X82.334 Y108.912 E26.70835
G1 X82.222 Y108.493 E26.72999
G1 X82.335 Y108.073 E26.75169
G1 F1500 E20.25169
G0 F7500 X83.063 Y119.825
G1 F1500 E26.75169
G1 X83.896 Y120.048 E26.79471
G1 X84.508 Y120.661 E26.83793
G1 X84.731 Y121.494 E26.88095
G1 X84.508 Y122.329 E26.92407
G1 X83.898 Y122.939 E26.96711
G1 X83.063 Y123.162 E27.01022
G1 X82.23 Y122.939 E27.05325
G1 X81.617 Y122.327 E27.09646
G1 X81.394 Y121.494 E27.13948
G1 X81.617 Y120.659 E27.1826
G1 X82.228 Y120.048 E27.22571
G1 X83.063 Y119.825 E27.26883
G0 F7500 X83.063 Y120.239
G1 F1500 X83.689 Y120.407 E27.30117
G1 X84.149 Y120.867 E27.33362
G1 X84.317 Y121.494 E27.36601
G1 X84.148 Y122.123 E27.3985
G1 X83.692 Y122.579 E27.43067
G1 X83.063 Y122.748 E27.46317
G1 X82.436 Y122.58 E27.49555
G1 X81.976 Y122.12 E27.52801
G1 X81.808 Y121.494 E27.56034
G1 X81.977 Y120.865 E27.59284
G1 X82.434 Y120.408 E27.62508
G1 X83.063 Y120.239 E27.65757
G0 F7500 X83.062 Y120.653
G1 F1500 X83.481 Y120.765 E27.67921
G1 X83.79 Y121.075 E27.70105
G1 X83.903 Y121.494 E27.7227
G1 X83.79 Y121.915 E27.74445
G1 X83.484 Y122.221 E27.76604
G1 X83.064 Y122.334 E27.78774
G1 X82.644 Y122.221 E27.80944
G1 X82.334 Y121.912 E27.83127
G1 X82.222 Y121.493 E27.85291
G1 X82.335 Y121.073 E27.87461
G1 X82.642 Y120.766 E27.89627
G1 X83.062 Y120.653 E27.91797
G1 F1500 E21.41797
G0 F7500 X116.365 Y121.494
G1 F1500 E27.91797
G1 X116.372 Y121.323 E27.92651
G1 X116.395 Y121.168 E27.93432
G1 X116.439 Y120.993 E27.94333
G1 X116.495 Y120.838 E27.95155
G1 X116.557 Y120.708 E27.95873
G1 X116.657 Y120.541 E27.96845
G1 X116.75 Y120.415 E27.97626
G1 X116.868 Y120.286 E27.98498
G1 X116.98 Y120.185 E27.99251
G1 X117.124 Y120.077 E28.00149
G1 X117.255 Y119.998 E28.00912
G1 X117.409 Y119.924 E28.01764
G1 X117.576 Y119.865 E28.02648
G1 X117.725 Y119.828 E28.03414
G1 X117.896 Y119.803 E28.04276
G1 X118.062 Y119.796 E28.05105
G1 X118.229 Y119.803 E28.05939
G1 X118.404 Y119.829 E28.06821
G1 X118.554 Y119.867 E28.07593
G1 X118.707 Y119.922 E28.08405
G1 X118.86 Y119.993 E28.09246
G1 X119.015 Y120.087 E28.1015
G1 X119.133 Y120.175 E28.10885
G1 X119.272 Y120.299 E28.11814
G1 X119.374 Y120.413 E28.12577
G1 X119.474 Y120.546 E28.13408
G1 X119.559 Y120.688 E28.14233
G1 X119.633 Y120.847 E28.15108
G1 X119.69 Y121.004 E28.15941
G1 X119.727 Y121.151 E28.16698
G1 X119.755 Y121.328 E28.17592
G1 X119.761 Y121.493 E28.18415
G1 X119.754 Y121.66 E28.19249
G1 X119.73 Y121.827 E28.20091
G1 X119.689 Y121.986 E28.2091
G1 X119.635 Y122.138 E28.21715
G1 X119.562 Y122.294 E28.22574
G1 X119.474 Y122.44 E28.23425
G1 X119.381 Y122.565 E28.24202
G1 X119.265 Y122.694 E28.25068
G1 X119.134 Y122.812 E28.25947
G1 X119.007 Y122.908 E28.26741
G1 X118.873 Y122.989 E28.27523
G1 X118.703 Y123.067 E28.28456
G1 X118.554 Y123.12 E28.29245
G1 X118.404 Y123.158 E28.30017
G1 X118.229 Y123.184 E28.30899
G1 X118.062 Y123.192 E28.31734
G1 X117.894 Y123.185 E28.32572
G1 X117.723 Y123.158 E28.33436
G1 X117.571 Y123.121 E28.34217
G1 X117.41 Y123.063 E28.3507
G1 X117.263 Y122.994 E28.35881
G1 X117.119 Y122.907 E28.3672
G1 X116.981 Y122.803 E28.37582
G1 X116.855 Y122.688 E28.38433
G1 X116.753 Y122.575 E28.39193
G1 X116.653 Y122.44 E28.40031
G1 X116.562 Y122.289 E28.4091
G1 X116.49 Y122.136 E28.41754
G1 X116.44 Y121.999 E28.42482
G1 X116.395 Y121.817 E28.43417
G1 X116.372 Y121.663 E28.44194
G1 X116.365 Y121.494 E28.45038
G0 F7500 X116.766 Y121.494
G1 F1500 X116.771 Y121.352 E28.45746
G1 X116.786 Y121.255 E28.46236
G1 X116.822 Y121.112 E28.46972
G1 X116.865 Y120.992 E28.47608
G1 X116.915 Y120.888 E28.48183
G1 X116.986 Y120.768 E28.48879
G1 X117.063 Y120.665 E28.49521
G1 X117.143 Y120.577 E28.50114
G1 X117.231 Y120.498 E28.50704
G1 X117.352 Y120.407 E28.51459
G1 X117.442 Y120.352 E28.51986
G1 X117.567 Y120.292 E28.52677
G1 X117.684 Y120.251 E28.53296
G1 X117.813 Y120.219 E28.53959
G1 X117.927 Y120.202 E28.54534
G1 X118.062 Y120.197 E28.55208
G1 X118.2 Y120.202 E28.55897
G1 X118.324 Y120.221 E28.56523
G1 X118.431 Y120.248 E28.57073
G1 X118.552 Y120.291 E28.57714
G1 X118.676 Y120.349 E28.58397
G1 X118.795 Y120.421 E28.59091
G1 X118.873 Y120.479 E28.59576
G1 X118.989 Y120.583 E28.60353
G1 X119.061 Y120.663 E28.6089
G1 X119.147 Y120.778 E28.61606
G1 X119.202 Y120.869 E28.62137
G1 X119.262 Y120.999 E28.62851
G1 X119.309 Y121.13 E28.63546
G1 X119.336 Y121.235 E28.64086
G1 X119.355 Y121.361 E28.64722
G1 X119.36 Y121.493 E28.65381
G1 X119.355 Y121.631 E28.6607
G1 X119.338 Y121.747 E28.66655
G1 X119.31 Y121.856 E28.67217
G1 X119.264 Y121.986 E28.67904
G1 X119.209 Y122.103 E28.68549
G1 X119.133 Y122.228 E28.69279
G1 X119.074 Y122.309 E28.69779
G1 X118.978 Y122.415 E28.70493
G1 X118.888 Y122.496 E28.71097
G1 X118.777 Y122.58 E28.71791
G1 X118.689 Y122.633 E28.72304
G1 X118.552 Y122.696 E28.73056
G1 X118.431 Y122.739 E28.73697
G1 X118.324 Y122.766 E28.74247
G1 X118.191 Y122.786 E28.74918
G1 X118.062 Y122.792 E28.75563
G1 X117.936 Y122.787 E28.76192
G1 X117.809 Y122.767 E28.76833
G1 X117.687 Y122.737 E28.7746
G1 X117.563 Y122.693 E28.78116
G1 X117.45 Y122.639 E28.78741
G1 X117.34 Y122.573 E28.79381
G1 X117.241 Y122.499 E28.79998
G1 X117.146 Y122.412 E28.80641
G1 X117.057 Y122.314 E28.81301
G1 X116.986 Y122.218 E28.81897
G1 X116.918 Y122.105 E28.82555
G1 X116.859 Y121.98 E28.83244
G1 X116.822 Y121.88 E28.83776
G1 X116.786 Y121.733 E28.84531
G1 X116.771 Y121.634 E28.85031
G1 X116.766 Y121.494 E28.8573
G0 F7500 X117.165 Y121.494
G1 F1500 X117.169 Y121.4 E28.86199
G1 X117.179 Y121.33 E28.86552
G1 X117.206 Y121.226 E28.87088
G1 X117.236 Y121.143 E28.87528
G1 X117.266 Y121.079 E28.87881
G1 X117.315 Y120.997 E28.88357
G1 X117.371 Y120.921 E28.88828
G1 X117.425 Y120.862 E28.89227
G1 X117.498 Y120.796 E28.89718
G1 X117.568 Y120.743 E28.90156
G1 X117.631 Y120.706 E28.90521
G1 X117.723 Y120.662 E28.9103
G1 X117.803 Y120.633 E28.91454
G1 X117.882 Y120.614 E28.9186
G1 X117.975 Y120.6 E28.92329
G1 X118.062 Y120.596 E28.92763
G1 X118.152 Y120.6 E28.93213
G1 X118.246 Y120.614 E28.93687
G1 X118.318 Y120.632 E28.94057
G1 X118.406 Y120.664 E28.94524
G1 X118.486 Y120.701 E28.94964
G1 X118.562 Y120.747 E28.95407
G1 X118.624 Y120.794 E28.95796
G1 X118.706 Y120.866 E28.9634
G1 X118.759 Y120.926 E28.96739
G1 X118.81 Y120.994 E28.97163
G1 X118.851 Y121.062 E28.9756
G1 X118.893 Y121.151 E28.98051
G1 X118.926 Y121.245 E28.98548
G1 X118.943 Y121.313 E28.98897
G1 X118.957 Y121.404 E28.99357
G1 X118.961 Y121.493 E28.99801
G1 X118.957 Y121.584 E29.00256
G1 X118.944 Y121.67 E29.00689
G1 X118.927 Y121.739 E29.01044
G1 X118.89 Y121.843 E29.01595
G1 X118.857 Y121.913 E29.01981
G1 X118.804 Y122 E29.02489
G1 X118.763 Y122.056 E29.02835
G1 X118.695 Y122.132 E29.03344
G1 X118.631 Y122.189 E29.03772
G1 X118.558 Y122.245 E29.04231
G1 X118.498 Y122.28 E29.04577
G1 X118.402 Y122.325 E29.05106
G1 X118.318 Y122.355 E29.05551
G1 X118.246 Y122.373 E29.05921
G1 X118.151 Y122.387 E29.06401
